dist/assets/img/icons/star-unfilled.svg

<svg width="16" height="17" viewBox="0 0 16 17" fill="none" xmlns="http://www.w3.org/2000/svg">
<path d="M6.24063 6.34805L8 2.66101L9.75937 6.34805C9.89057 6.62301 10.152 6.81292 10.454 6.85274L14.5043 7.38664L11.5414 10.1993C11.3204 10.409 11.2206 10.7163 11.276 11.0159L12.0199 15.0329L8.42931 13.0841C8.16155 12.9388 7.83845 12.9388 7.57069 13.0841L3.98014 15.0329L4.72397 11.0159C4.77944 10.7163 4.6796 10.409 4.45864 10.1992L1.49574 7.38664L5.54599 6.85274C5.84803 6.81292 6.10943 6.62301 6.24063 6.34805ZM14.6563 7.24236L14.6561 7.24254L14.6563 7.24236ZM12.204 15.1328L12.2038 15.1327L12.204 15.1328ZM3.79596 15.1328C3.79602 15.1328 3.79609 15.1328 3.79615 15.1327L3.79596 15.1328Z" stroke="black"/>
</svg>

<svg width="16" height="17" fill="none" xmlns="http://www.w3.org/2000/svg"><path d="M6.24 6.348L8 2.661l1.76 3.687a.9.9 0 00.694.505l4.05.534-2.963 2.812a.9.9 0 00-.265.817l.744 4.017-3.59-1.949a.9.9 0 00-.86 0l-3.59 1.949.744-4.017a.9.9 0 00-.265-.817L1.496 7.387l4.05-.534a.9.9 0 00.695-.505zm8.416.894h0zm-2.452 7.89h0zm-8.408 0s0 0 0 0h0z" stroke="#000"/></svg>
